X: 1
T: 爱的罗曼史
M: 3/4
L: 1/4
Q: 100
K: C
%%stretchlast .7
%%staves {(PianoRightHand) (PianoLeftHand)}
V:PianoRightHand clef=treble
V:PianoLeftHand clef=bass
[V: PianoRightHand]
|: B B B | B A G | G ^F E | E G B | %4
e e e | e d c | c B A | A B c | %8
B c B | ^d c B | B A G | G ^F E | %12
^F ^F ^F | ^F G ^F | E E E | E3 :| %16
[V: PianoLeftHand]
|: E,3 | E,3 | E,3 | E,3 |
E,3 | E,3 | A,3 | A,3 |
B,,3 | B,,3 | E,3 | E,3 |
_E,3 | _E,3 | E,3 | E,3 :|
